!!!!SEGMENT: pl-cz--iii-693--001-005_volckmer-augustin--litaniae-lauretanae-a-salus-infirmorum.krn
!!!cenid: 18xx:1130
!!!COM: Volckmer, Augustin
!!!COM-rismID: pe30020656
!!!CDT: 1755-~1820
!!!CNT:
!!!OPR: Litaniae Lauretanae A
!!!OTL: Salus infirmorum
!!!OMV: 005
!!!PDT:
!!!AGN: Sacred; Mass
!!!YEC: Copyright 2022 Narodowy Instytut Fryderyka Chopina (https://polishscores.org)
!!!YEM: License CC-BY-4.0 (https://creativecommons.org/licenses/by/4.0)
!!!SMS-siglum: PL-CZ
!!!SMS-shelfmark: III-693
!!!SMS-shelfwork: 001-005 M
!!!SMS-variant:
!!!SMS-altvar:
!!!NIFC-rismSourceID: 300001388
!!!NIFC-rismChildID: 300001388
!!!NIFC-islandoraID: pl-cz:40462
!!!URL-pdf-islandora: https://repozytorium.nifc.pl/islandora/object/pl-cz%3A40462/datastream/PDF/view
!!!URL-scan: https://polish.musicsources.pl/pl/lokalizacje/galeria/rekopisy/6990/1 @EN{Scan on Polish Music Sources Website} @PL{Skany w portalu Dziedzictwo Muzyki Polskiej w otwartym dostępie}
!!!IIIF:
!!!ONB-nifc: UWAGA: części Litanii: Kyrie, Mater christi, Virgo prudentissima, Rosa mystica, Salus infirmorum, Regina angelorum, Agnus Dei, Miserere nobis
!!!AIN: 1 alto 1 bass 2 cor 3 oboe 1 organ 1 soprn 1 tenor 1 timpa 2 viola 2 violn
!!!key: F
**kern	**fba	**kern	**kern	**kern	**kern	**dynam	**kern	**text	**text	**kern	**text	**text	**kern	**text	**text	**text	**kern	**text	**text	**kern	**kern	**kern	**kern	**kern	**kern
*	*	*group4	*group4	*group4	*group4	*	*group3	*	*	*group3	*	*	*group3	*	*	*	*group3	*	*	*	*group2	*group2	*group1	*group1	*group1
*part15	*	*part14	*part13	*part12	*part11	*	*part10	*	*	*part9	*	*	*part8	*	*	*	*part7	*	*	*part6	*part5	*part4	*part3	*part2	*part1
*staff15	*	*staff14	*staff13	*staff12	*staff11	*	*staff10	*	*	*staff9	*	*	*staff8	*	*	*	*staff7	*	*	*staff6	*staff5	*staff4	*staff3	*staff2	*staff1
*I"Organo	*	*I"Viola obl:	*I"Viola. Solo.	*I"Violino Secondo	*I"Violino Primo.	*	*I"Baſso	*	*	*I"Tenore	*	*	*I"Alto.	*	*	*	*I"Canto	*	*	*I"Tympano ex D.	*I"Cornu Secondo in A.	*I"Cornu Primo ex Adur	*I"Oboe Secondo	*I"Oboe Primo	*I"Oboe Primo Solo
*I'org	*	*I'vla	*I'vla solo	*I'vl 2	*I'vl 1	*	*I'B	*	*	*I'T	*	*	*I'A	*	*	*	*I'S	*	*	*I'timp in D	*I'cor 2 in A	*I'cor 1 in A	*I'ob 2	*I'ob 1	*I'ob 1 solo
*Iorgan	*	*Iviola	*Iviola	*Ivioln	*Ivioln	*	*Ibass	*	*	*Itenor	*	*	*Ialto	*	*	*	*Isoprn	*	*	*Itimpa	*Icor	*Icor	*Ioboe	*Ioboe	*Ioboe
*ICklav	*	*ICstr	*ICstr	*ICstr	*ICstr	*	*ICvox	*	*	*ICvox	*	*	*ICvox	*	*	*	*ICvox	*	*	*ICidio	*ICbras	*ICbras	*ICww	*ICww	*ICww
*clefF4	*	*clefC3	*	*clefG2	*clefG2	*	*clefF4	*	*	*clefC4	*	*	*clefC3	*	*	*	*clefC1	*	*	*	*	*	*clefG2	*clefG2	*clefG2
*k[b-]	*	*k[b-]	*	*k[b-]	*k[b-]	*	*k[b-]	*	*	*k[b-]	*	*	*k[b-]	*	*	*	*k[b-]	*	*	*	*	*	*k[b-]	*k[b-]	*k[b-]
*F:	*	*F:	*	*F:	*F:	*	*F:	*	*	*F:	*	*	*F:	*	*	*	*F:	*	*	*	*	*	*F:	*F:	*F:
*M2/2	*	*M2/2	*	*M2/2	*M2/2	*	*M2/2	*	*	*M2/2	*	*	*M2/2	*	*	*	*M2/2	*	*	*	*	*	*M2/2	*M2/2	*M2/2
*met(2)	*	*met(2)	*	*met(2)	*met(2)	*	*met(2)	*	*	*met(2)	*	*	*met(2)	*	*	*	*met(2)	*	*	*	*	*	*met(2)	*met(2)	*met(2)
*all\right	*	*all\right	*	*all\right	*all\right	*	*all\right	*	*	*all\right	*	*	*all\right	*	*	*	*all\right	*	*	*	*	*	*all\right	*all\right	*all\right
=1	=1	=1	=1	=1	=1	=1	=1	=1	=1	=1	=1	=1	=1	=1	=1	=1	=1	=1	=1	=1	=1	=1	=1	=1	=1
!LO:TX:a:i:t=Sanctus:color=red	!	!LO:TX:a:i:t=Sanctus:color=red	!	!LO:TX:a:i:t=Sanctus:color=red	!LO:TX:a:i:t=Sanctus:color=red	!	!	!	!	!	!	!	!	!	!	!	!	!	!	!	!	!	!LO:TX:a:i:t=Sanctus:color=red	!LO:TX:t=P:problem:partia wykreślona	!
!LO:TX:a:Bi:t=Adagio	!	!LO:TX:a:Bi:t=Adagio	!LO:TX:t=P:problem:partia wyłącznie w części "Benedictus"	!LO:TX:a:Bi:t=Adagio	!LO:TX:a:Bi:t=Adagio	!	!LO:TX:a:Bi:t=Adagio	!	!	!LO:TX:a:Bi:t=adagio	!	!	!LO:TX:a:Bi:t=Adagio.	!	!	!	!LO:TX:a:Bi:t=Adagio	!	!	!LO:TX:a:i:t=Lytaniae Tacet Kyrie //&colon; Virgo, Rosa, Salus	!LO:TX:a:i:t=Sanctus. et - Benedictus Tacet:color=red	!LO:TX:a:i:t=Sanctus. et. Benedictus. Tacet:color=red	!LO:TX:a:Bi:t=adagio	!LO:TX:a:Bi:t=adagio	!LO:TX:a:i:t=Sanctus:color=red
4r	.	4r	1ryy	(8a/L	(8cc\L	.	1r	.	.	1r	.	.	1r	.	.	.	0r	.	.	1ryy	1ryy	1ryy	1r	0ryy	0r
.	.	.	.	8f/)	8a\)	.	.	.	.	.	.	.	.	.	.	.	.	.	.	.	.	.	.	.	.
4F\	.	4f\	.	8f|/	8a\|	.	.	.	.	.	.	.	.	.	.	.	.	.	.	.	.	.	.	.	.
.	.	.	.	8f|/J	8a\J|	.	.	.	.	.	.	.	.	.	.	.	.	.	.	.	.	.	.	.	.
4r	.	4r	.	(8dd\L	(8ff\L	.	.	.	.	.	.	.	.	.	.	.	.	.	.	.	.	.	.	.	.
.	.	.	.	8b-\)	8dd\)	.	.	.	.	.	.	.	.	.	.	.	.	.	.	.	.	.	.	.	.
4BB-/	.	4f\	.	8b-\|	8dd\|	.	.	.	.	.	.	.	.	.	.	.	.	.	.	.	.	.	.	.	.
.	.	.	.	8b-\J|	8dd\J|	.	.	.	.	.	.	.	.	.	.	.	.	.	.	.	.	.	.	.	.
=2	=2	=2	=2	=2	=2	=2	=2	=2	=2	=2	=2	=2	=2	=2	=2	=2	=2	=2	=2	=2	=2	=2	=2	=2	=2
4AA/	.	4f\	1ryy	8a/L	(8cc/L	.	1r	.	.	1r	.	.	1r	.	.	.	.	.	.	1ryy	1ryy	1ryy	1r	.	.
.	.	.	.	8f/	8a/	.	.	.	.	.	.	.	.	.	.	.	.	.	.	.	.	.	.	.	.
4BB-/	.	4g\	.	8d/	8b-/	.	.	.	.	.	.	.	.	.	.	.	.	.	.	.	.	.	.	.	.
.	.	.	.	8B-/J	8g/J)	.	.	.	.	.	.	.	.	.	.	.	.	.	.	.	.	.	.	.	.
4C/	.	4a\	.	4A/	4f/	.	.	.	.	.	.	.	.	.	.	.	.	.	.	.	.	.	.	.	.
4CC/	.	4b-\	.	4G/	4e/	.	.	.	.	.	.	.	.	.	.	.	.	.	.	.	.	.	.	.	.
=3	=3	=3	=3	=3	=3	=3	=3	=3	=3	=3	=3	=3	=3	=3	=3	=3	=3	=3	=3	=3	=3	=3	=3	=3	=3
4FF/	.	4a\	1ryy	8r	8r	.	4F\	Sa-	E-	4f\	Sa-	E-	4a\	Sa-	[[sin-	E-	4cc\	Sa-	E-	1ryy	1ryy	1ryy	4a/|>	4cc\|yy	4cc\
.	.	.	.	(8a/L|	8cc\L|	.	.	.	.	.	.	.	.	.	.	.	.	.	.	.	.	.	.	.	.
4r	.	4r	.	8a/|	(8ff\	.	4F\	-lus	-xem-	4f\	-lus	-xem-	4a\	-lus	.	-xem-	4cc\	-lus	-xem-	.	.	.	4r	4ryy	4r
.	.	.	.	8a/J)|	8cc\J)	.	.	.	.	.	.	.	.	.	.	.	.	.	.	.	.	.	.	.	.
4F\	.	4a\	.	8r	8r	.	4F\	in-	-plar	4f\	in-	-plar	4a\	in-	-gu-	-plar	4cc\	in-	-plar	.	.	.	4a/|>	4cc\|yy	4cc\
.	.	.	.	(8a/L|	8cc\L|	.	.	.	.	.	.	.	.	.	.	.	.	.	.	.	.	.	.	.	.
4r	.	4r	.	8a/|	(8ff\	.	4F\	-fir-	vir-	4f\	-fir-	vir-	4a\	-fir-	.	vir-	4cc\	-fir-	vir-	.	.	.	4r	4ryy	4r
.	.	.	.	8a/J)|	8cc\J)	.	.	.	.	.	.	.	.	.	.	.	.	.	.	.	.	.	.	.	.
=4	=4	=4	=4	=4	=4	=4	=4	=4	=4	=4	=4	=4	=4	=4	=4	=4	=4	=4	=4	=4	=4	=4	=4	=4	=4
.	.	.	.	.	.	.	.	.	.	.	.	.	8qqa/	.	.	.	8qqcc#X/	.	.	.	.	.	.	.	.
4BB-/	.	4b-\	1ryy	8r	8r	.	4F\	-mo-	-tu-	4f\	-mo-	-tu-	4b-\	-mo-	-la-	-tu-	4dd\	-mo-	-tu-	1ryy	1ryy	1ryy	4b-\|	4dd\|yy	4dd\
.	.	.	.	(8b-\L|	8dd\L|	.	.	.	.	.	.	.	.	.	.	.	.	.	.	.	.	.	.	.	.
4r	.	4r	.	8b-\|	(8ff\	.	4F\	-rum	-tum	4f\	-rum	-tum	4b-\	-rum	-ris	-tum	4dd\	-rum	-tum	.	.	.	4r	4ryy	4r
.	.	.	.	8b-\J)|	8dd\J)	.	.	.	.	.	.	.	.	.	.	.	.	.	.	.	.	.	.	.	.
4BB-/	.	4b-\	.	8r	8r	.	2r	.	.	2r	.	.	2r	.	.	.	2r	.	.	.	.	.	4b-\|	4dd\|yy	4dd\
.	.	.	.	8b-\L|	8dd\L|	.	.	.	.	.	.	.	.	.	.	.	.	.	.	.	.	.	.	.	.
4r	.	4r	.	8b-\|	(8ff\	.	.	.	.	.	.	.	.	.	.	.	.	.	.	.	.	.	4r	4ryy	4r
.	.	.	.	8b-\J|	8dd\J)	.	.	.	.	.	.	.	.	.	.	.	.	.	.	.	.	.	.	.	.
=5	=5	=5	=5	=5	=5	=5	=5	=5	=5	=5	=5	=5	=5	=5	=5	=5	=5	=5	=5	=5	=5	=5	=5	=5	=5
*	*	*	*	*	*	*	*	*	*	*2\right	*	*	*2\right	*	*	*	*2\right	*	*	*	*	*	*	*	*
4BB-/	.	4b-\	1ryy	8r	8r	.	2BB-/	Re-	Re-	2f\	Re-	Re-	2b-\	Re-	Pa-	Re-	2dd\	Re-	Re-	1ryy	1ryy	1ryy	4b-\|	4dd\|yy	4dd\
.	.	.	.	8b-\L|	8dd\L|	.	.	.	.	.	.	.	.	.	.	.	.	.	.	.	.	.	.	.	.
4r	.	4r	.	8b-\|	(8ff\	.	.	.	.	.	.	.	.	.	.	.	.	.	.	.	.	.	4r	4ryy	4r
.	.	.	.	8b-\J|	8dd\J)	.	.	.	.	.	.	.	.	.	.	.	.	.	.	.	.	.	.	.	.
4BB-/	.	4b-\	.	8r	8r	.	4BB-/	-fu-	-fu-	4f\	-fu-	-fu-	4b-\	-fon-	-tro-	-fu-	4dd\	-fu-	-fu-	.	.	.	4b-\|	4dd\|yy	4dd\
.	.	.	.	8b-\L|	8dd\L|	.	.	.	.	.	.	.	.	.	.	.	.	.	.	.	.	.	.	.	.
4r	.	4r	.	8b-\|	(8ff\	.	8BB-/	-gi-	-gi-	8f\	-gi-	-gi-	8b-\	-gi-	-ne	-gi-	8dd\	-gi-	-gi-	.	.	.	4r	4ryy	4r
.	.	.	.	8b-\J|	8dd\J)	.	8BB-/	-um	-um	8f\	-um	-um	8b-\	-um	.	-um	8dd\	-um	-um	.	.	.	.	.	.
!	!	!	!	!	!	!	!LO:LB:g=original	!	!	!	!	!	!	!	!	!	!	!	!	!	!	!	!	!	!
=6	=6	=6	=6	=6	=6	=6	=6	=6	=6	=6	=6	=6	=6	=6	=6	=6	=6	=6	=6	=6	=6	=6	=6	=6	=6
*	*	*	*	*	*	*	*2\right	*	*	*	*	*	*	*	*	*	*	*	*	*	*	*	*	*	*
!	!	!	!	!	!	!	!	!	!	!	!	!	!	!	!	!	!	!	!	!	!	!	!	!	!LO:TX:t=P:problem:brak taktu nr 6
4BB-/	.	4b-\	1ryy	(8dd\L	(8bb-\L	.	2D\	pec-	pau-	2f\	pec-	pau-	2dd\	pec-	sin-	pau-	2ff\	pec-	pau-	1ryy	1ryy	1ryy	4dd\|	4ff\|yy	1ryy
.	.	.	.	8b-\)	8ff\	.	.	.	.	.	.	.	.	.	.	.	.	.	.	.	.	.	.	.	.
4r	.	4r	.	8b-\|	8ff\	.	.	.	.	.	.	.	.	.	.	.	.	.	.	.	.	.	4r	4ryy	.
.	.	.	.	8b-\J|	8dd\J)	.	.	.	.	.	.	.	.	.	.	.	.	.	.	.	.	.	.	.	.
!	!	!	!	!LO:LB:g=original	!	!	!	!	!	!	!	!	!	!	!	!	!	!	!	!	!	!	!	!	!
4D/	.	4b-\	.	8r	8r	.	2BB-/	-ca-	.	2f\	-ca-	.	2b-\	-ca-	-gu-	.	2dd\	-ca-	.	.	.	.	4b-\|	4dd\|yy	.
.	.	.	.	8b-\L|	8dd\L|	.	.	.	.	.	.	.	.	.	.	.	.	.	.	.	.	.	.	.	.
!	!	!	!	!LO:SIC:v:s=(8dd\	!	!	!	!	!	!	!	!	!	!	!	!	!	!	!	!	!	!	!	!	!
4BB-/	.	4r	.	(8ee\	(8ff\	.	.	.	.	.	.	.	.	.	.	.	.	.	.	.	.	.	4r	4ryy	.
.	.	.	.	8b-\J)	8dd\J)	.	.	.	.	.	.	.	.	.	.	.	.	.	.	.	.	.	.	.	.
!	!	!	!	!	!LO:LB:g=original	!	!	!	!	!	!	!	!	!	!	!	!	!	!	!	!	!	!	!	!
=7	=7	=7	=7	=7	=7	=7	=7	=7	=7	=7	=7	=7	=7	=7	=7	=7	=7	=7	=7	=7	=7	=7	=7	=7	=7
4F\	.	4r	1ryy	(8b-\L	(8dd\L	.	4F\	-to-	-pe-	4f\	-to-	-pe-	8b-\L	-to-	-la-	-pe-	8dd\L	-to-	-pe-	1ryy	1ryy	1ryy	(8b-/L	(8dd\Lyy	8dd\L
.	.	.	.	8a\)	8cc\	.	.	.	.	.	.	.	8a\J	.	.	.	8cc\J	.	.	.	.	.	8a/J)	8cc\J)yy	8cc\J
4r	.	4a\	.	8a\|	8cc\)	.	4FF/	-rum	-rum	4f\	-rum	-rum.	4a\	-rum	-ris]]	-rum	4cc\	-rum	-rum.	.	.	.	4r	4ryy	4r
.	.	.	.	8a\J|	8cc\J|	.	.	.	.	.	.	.	.	.	.	.	.	.	.	.	.	.	.	.	.
4FF/	.	4a\	.	8r	8r	.	2r	.	.	2r	.	.	2r	.	.	.	2r	.	.	.	.	.	4a/	4cc\yy	4cc\
.	.	.	.	8a/L|	8cc\L|	.	.	.	.	.	.	.	.	.	.	.	.	.	.	.	.	.	.	.	.
4r	.	4r	.	(8a/	(8ff\	.	.	.	.	.	.	.	.	.	.	.	.	.	.	.	.	.	4r	4ryy	4r
.	.	.	.	8f/J)	8aa\J)	.	.	.	.	.	.	.	.	.	.	.	.	.	.	.	.	.	.	.	.
!LO:LB:g=original	!	!LO:LB:g=original	!	!	!	!	!	!	!	!LO:LB:g=original	!	!	!	!	!	!	!LO:LB:g=original	!	!	!	!	!	!	!	!
=8	=8	=8	=8	=8	=8	=8	=8	=8	=8	=8	=8	=8	=8	=8	=8	=8	=8	=8	=8	=8	=8	=8	=8	=8	=8
*	*	*	*	*	*	*	*	*	*	*	*	*	*	*	*	*	*	*	*	*	*	*	*	*2\right	*2\right
2C/	7 5	(8g\L	1ryy	(8b-\L	8bb-\L|	.	2C/	o-	.	2G/	o-	.	2b-\	o-	.	.	2ee\	o-	.	1ryy	1ryy	1ryy	(2b-/	(2ee\yy	(2ee\
.	.	8e\	.	8cc\	(8gg\	.	.	.	.	.	.	.	.	.	.	.	.	.	.	.	.	.	.	.	.
.	.	8g\	.	8b-\	8ff\	.	.	.	.	.	.	.	.	.	.	.	.	.	.	.	.	.	.	.	.
.	.	8e\J)	.	8cc\J)	8ee\J)	.	.	.	.	.	.	.	.	.	.	.	.	.	.	.	.	.	.	.	.
4FF/	.	(8f\L	.	(8a\L	(8ff\L	.	4F\	-ra	.	4c\	-ra	.	4a\	-ra	.	.	4ff\	-ra	.	.	.	.	4a/)	4ff\)yy	4ff\)
.	.	8a\	.	8cc\	8cc\)	.	.	.	.	.	.	.	.	.	.	.	.	.	.	.	.	.	.	.	.
4r	.	8f\	.	8a\	8cc\|	.	4r	.	.	4r	.	.	4r	.	.	.	4r	.	.	.	.	.	4r	4ryy	4r
.	.	8a\J)	.	8cc\J)	8cc\J|	.	.	.	.	.	.	.	.	.	.	.	.	.	.	.	.	.	.	.	.
=9	=9	=9	=9	=9	=9	=9	=9	=9	=9	=9	=9	=9	=9	=9	=9	=9	=9	=9	=9	=9	=9	=9	=9	=9	=9
*	*	*	*	*	*	*	*	*ij	*	*	*ij	*	*	*	*	*	*	*ij	*	*	*	*	*	*	*
!	!	!	!	!	!	!	!	!	!	!	!	!	!	!	!	!	!	!	!	!	!	!	!	!	!LO:TX:t=P:problem:brak taktu nr 9
2C/	.	(8g\L	1ryy	(8b-\L	8bb-\L|	.	2C/	o-	.	2G/	o-	.	2b-\	o-	.	.	2ee\	o-	.	1ryy	1ryy	1ryy	(2b-/	(2ee\yy	1ryy
.	.	8e\)	.	8cc\	(8gg\	.	.	.	.	.	.	.	.	.	.	.	.	.	.	.	.	.	.	.	.
.	.	(8g\	.	8b-\	8ff\	.	.	.	.	.	.	.	.	.	.	.	.	.	.	.	.	.	.	.	.
.	.	8e\J)	.	8cc\J)	8ee\J)	.	.	.	.	.	.	.	.	.	.	.	.	.	.	.	.	.	.	.	.
4FF/	.	(8f\L	.	(8a\L	(8ff\L	.	4F\	-ra	.	4c\	-ra	.	4a\	-ra	.	.	4ff\	-ra	.	.	.	.	4a/)	4ff\)yy	.
*	*	*	*	*	*	*	*	*Xij	*	*	*Xij	*	*	*	*	*	*	*Xij	*	*	*	*	*	*	*
.	.	8a\	.	8cc\	8cc\)	.	.	.	.	.	.	.	.	.	.	.	.	.	.	.	.	.	.	.	.
4r	.	8f\	.	8a\	8cc\|	.	4r	.	.	4r	.	.	4r	.	.	.	4r	.	.	.	.	.	4r	4ryy	.
.	.	8a\J)	.	8cc\J)	8cc\J|	.	.	.	.	.	.	.	.	.	.	.	.	.	.	.	.	.	.	.	.
=10	=10	=10	=10	=10	=10	=10	=10	=10	=10	=10	=10	=10	=10	=10	=10	=10	=10	=10	=10	=10	=10	=10	=10	=10	=10
4BB-/	3	(8c#X\L	1ryy	4f/	(8cc#X\L	.	2r	.	.	2r	.	.	2r	.	.	.	2r	.	.	1ryy	1ryy	1ryy	4b-\	4dd\yy	4dd\
.	.	8d\	.	.	8dd\	.	.	.	.	.	.	.	.	.	.	.	.	.	.	.	.	.	.	.	.
4r	.	8e\	.	4r	8ee\	.	.	.	.	.	.	.	.	.	.	.	.	.	.	.	.	.	4r	4ryy	4r
.	.	8f\J)	.	.	8ff\J)	.	.	.	.	.	.	.	.	.	.	.	.	.	.	.	.	.	.	.	.
4r	.	8f#X\L	.	4r	(8ff#X\L	.	4r	.	.	4r	.	.	4r	.	.	.	4r	.	.	.	.	.	4r	4ryy	4r
.	.	8g\	.	.	8gg\	.	.	.	.	.	.	.	.	.	.	.	.	.	.	.	.	.	.	.	.
4BB-/	.	8a\	.	4b-\	8aa\	.	4BB-/	pro	.	4d\	pro	.	4b-\	pro	.	.	4gg\	pro	.	.	.	.	4b-\	4gg\yy	4gg\
.	.	8b-\J	.	.	8bb-\J)	.	.	.	.	.	.	.	.	.	.	.	.	.	.	.	.	.	.	.	.
!	!	!	!	!	!	!	!	!	!	!	!	!	!LO:LB:g=original	!	!	!	!	!	!	!	!	!	!	!	!LO:LB:g=original
=11	=11	=11	=11	=11	=11	=11	=11	=11	=11	=11	=11	=11	=11	=11	=11	=11	=11	=11	=11	=11	=11	=11	=11	=11	=11
*	*	*2\right	*	*	*2\right	*	*	*	*	*	*	*	*	*	*	*	*	*	*	*	*	*	*	*	*
2C/	4	2cc\	1ryy	(2a/	(2ffn\	.	2C/	no-	.	2c\	no-	.	(2a\	no-	.	.	(2ff\	no-	.	1ryy	1ryy	1ryy	2a/	(2ff\yy	(2ff\
2CC/	3	4cc\	.	4g/)	4ee\)	.	4C/	-bis	.	4c\	-bis	.	4g\)	-bis	.	.	4ee\)	-bis	.	.	.	.	4a/	4ee\)yy	4ee\)
.	.	4r	.	4r	4r	.	4r	.	.	4r	.	.	4r	.	.	.	4r	.	.	.	.	.	4r	4ryy	4r
!	!	!	!	!	!	!	!	!	!	!	!	!	!	!	!	!	!	!	!	!	!	!	!LO:LB:g=original	!LO:PB:g=original	!
=12	=12	=12	=12	=12	=12	=12	=12	=12	=12	=12	=12	=12	=12	=12	=12	=12	=12	=12	=12	=12	=12	=12	=12	=12	=12
4r	.	4r	1ryy	(8ee\L	(8gg\L	.	(2C\	Con-	au-	2.c\	Con-	Au-	2.g\	Con-	[[Pa-	Au-	2.ee\	Con-	Au-	1ryy	1ryy	1ryy	4r	4ryy	4r
.	.	.	.	8cc\)	8ee\)	.	.	.	.	.	.	.	.	.	.	.	.	.	.	.	.	.	.	.	.
4C/	5 3	4g\	.	8ee\|	8gg\|	.	.	.	.	.	.	.	.	.	.	.	.	.	.	.	.	.	4g/	4ee\|yy	4ee\
.	.	.	.	8ee\J|	8gg\J|	.	.	.	.	.	.	.	.	.	.	.	.	.	.	.	.	.	.	.	.
4r	.	4r	.	(8ee\L	(8gg\L	.	4E\)	.	.	.	.	.	.	.	.	.	.	.	.	.	.	.	4r	4ryy	4r
.	.	.	.	8cc\)	8ee\)	.	.	.	.	.	.	.	.	.	.	.	.	.	.	.	.	.	.	.	.
4C/	.	4g\	.	8ee\|	8gg\|	.	4C\	-so-	-xi-	4c\	-so-	-xi-	4g\	-so-	-tro-	-xi-	4ee\	-so-	-xi-	.	.	.	4g/	4ee\|yy	4ee\
.	.	.	.	8ee\J|	8gg\J|	.	.	.	.	.	.	.	.	.	.	.	.	.	.	.	.	.	.	.	.
=13	=13	=13	=13	=13	=13	=13	=13	=13	=13	=13	=13	=13	=13	=13	=13	=13	=13	=13	=13	=13	=13	=13	=13	=13	=13
4G\	6 4	4g\	1ryy	(8ee\L	(8gg\L	.	4G\	-la-	-li-	8c\L	-la-	-li-	4g\	-la-	-ne	-li-	8ee\L	-la-	-li-	1ryy	1ryy	1ryy	8cc\L	(8ee\Lyy	8ee\L
.	.	.	.	8dd\)	8ff\)	.	.	.	.	8d\J	.	.	.	.	.	.	8ff\J	.	.	.	.	.	8dd\J	8ff\J)yy	8ff\J
4GG/	7 5	4g\	.	8dd\|	8ff\|	.	4GG/	-trix	-um	4d\	-trix	-um	4g\	-tix	.	-um	4ff\	-trix	-um	.	.	.	4dd\	4ff\yy	4ff\
.	.	.	.	8dd\J|	8ff\J|	.	.	.	.	.	.	.	.	.	.	.	.	.	.	.	.	.	.	.	.
!	!	!	!	!LO:TX:t=P:problem:mixed beam	!	!	!	!	!	!	!	!	!	!	!	!	!	!	!	!	!	!	!	!	!
2r	.	4r	.	(8dd\L	(8ff\L	.	2r	.	.	2r	.	.	2r	.	.	.	2r	.	.	.	.	.	2r	2ryy	2r
!	!	!	!	!LO:SIC:v:s=8bn\)	!	!	!	!	!	!	!	!	!	!	!	!	!	!	!	!	!	!	!	!	!
.	.	.	.	8b-\)	8dd\	.	.	.	.	.	.	.	.	.	.	.	.	.	.	.	.	.	.	.	.
.	.	4g\	.	(>8d/	(8dd\)	.	.	.	.	.	.	.	.	.	.	.	.	.	.	.	.	.	.	.	.
.	.	.	.	8G/J)	8bn\J)	.	.	.	.	.	.	.	.	.	.	.	.	.	.	.	.	.	.	.	.
!	!	!	!	!LO:LB:g=original	!	!	!LO:LB:g=original	!	!	!	!	!	!	!	!	!	!	!	!	!	!	!	!	!	!
=14	=14	=14	=14	=14	=14	=14	=14	=14	=14	=14	=14	=14	=14	=14	=14	=14	=14	=14	=14	=14	=14	=14	=14	=14	=14
!	!	!	!	!LO:TX:t=P:problem:mixed beam	!	!	!	!	!	!	!	!	!	!	!	!	!	!	!	!	!	!	!	!	!
4r	.	4r	1ryy	(>8d/L	(8ff\L	.	2G\	af-	no-	2.Bn\	af-	no-	2.g\	af-	sin-	no-	2.dd\	af-	no-	1ryy	1ryy	1ryy	4r	4ryy	4r
!	!	!	!	!LO:SIC:v:s=8bn\)	!	!	!	!	!	!	!	!	!	!	!	!	!	!	!	!	!	!	!	!	!
.	.	.	.	8b-\)	8dd\)	.	.	.	.	.	.	.	.	.	.	.	.	.	.	.	.	.	.	.	.
!	!	!LO:SIC:v:s=4Bn/	!	!	!	!	!	!	!	!	!	!	!	!	!	!	!	!	!	!	!	!	!	!	!
4G\	5 n	4B-/	.	8dd\|	8ff\|	.	.	.	.	.	.	.	.	.	.	.	.	.	.	.	.	.	4bn\	4dd\|yy	4dd\
.	.	.	.	8dd\J|	8ff\J|	.	.	.	.	.	.	.	.	.	.	.	.	.	.	.	.	.	.	.	.
!	!	!	!	!	!LO:LB:g=original	!	!	!	!	!	!	!	!	!	!	!	!	!	!	!	!	!	!	!	!
4r	.	4r	.	(8dd\L	(8ff\L	.	4Bn\	-flic-	.	.	.	.	.	.	.	.	.	.	.	.	.	.	4r	4ryy	4r
!	!	!	!	!LO:SIC:v:s=8b\)	!	!	!	!	!	!	!	!	!	!	!	!	!	!	!	!	!	!	!	!	!
.	.	.	.	8b-\)	8dd\)	.	.	.	.	.	.	.	.	.	.	.	.	.	.	.	.	.	.	.	.
!	!	!LO:SIC:v:s=4B/	!	!	!	!	!	!	!	!	!	!	!	!	!	!	!	!	!	!	!	!	!	!	!
4G\	.	4B-/	.	8dd\|	8ff\|	.	4G\	.	.	4B\	-flic-	.	4g\	-fic-	-gu-	.	4dd\	-flic-	.	.	.	.	4b\	4dd\|yy	4dd\
.	.	.	.	8dd\J|	8ff\J|	.	.	.	.	.	.	.	.	.	.	.	.	.	.	.	.	.	.	.	.
=15	=15	=15	=15	=15	=15	=15	=15	=15	=15	=15	=15	=15	=15	=15	=15	=15	=15	=15	=15	=15	=15	=15	=15	=15	=15
!	!	!	!	!	!	!	!	!	!	!LO:SIC:v:s=(8Bn\L	!	!	!	!	!	!	!	!	!	!	!	!	!LO:SIC:v:s=(8bn\L	!	!
4c\	.	4c\	1ryy	8dd\L|	(8ff\L	.	4c\	-to-	.	(8B-\L	-to-	.	4g\	-to-	-la-	.	(8dd\L	-to-	.	1ryy	1ryy	1ryy	(8b-\L	(8dd\Lyy	8dd\L
.	.	.	.	8cc\|	8ee\)	.	.	.	.	8c\J)	.	.	.	.	.	.	8ee\J)	.	.	.	.	.	8cc\J	8ee\J)yy	8ee\J
4C/	.	4g\	.	8cc\|	8ee\|	.	4C/	-rum	-strum	4c\	-rum	-strum	4g\	-rum	-ris]]	-strum	4ee\	-rum	-strum	.	.	.	4cc\)	4ee\yy	4ee\
.	.	.	.	8cc\J|	8ee\J|	.	.	.	.	.	.	.	.	.	.	.	.	.	.	.	.	.	.	.	.
!	!	!	!	!LO:TX:t=P:problem:mixed beam	!	!	!	!	!	!	!	!	!	!	!	!	!	!	!	!	!	!	!	!	!
2r	.	2r	.	8cc\L	8ee\L|	.	2r	.	.	2r	.	.	2r	.	.	.	2r	.	.	.	.	.	2r	2ryy	2r
.	.	.	.	(8G/	8g\|	.	.	.	.	.	.	.	.	.	.	.	.	.	.	.	.	.	.	.	.
.	.	.	.	8c/	(8cc\|	.	.	.	.	.	.	.	.	.	.	.	.	.	.	.	.	.	.	.	.
.	.	.	.	8e/J)	8ee\J)	.	.	.	.	.	.	.	.	.	.	.	.	.	.	.	.	.	.	.	.
!	!	!LO:LB:g=original	!	!	!	!	!	!	!	!	!	!	!	!	!	!	!	!	!	!	!	!	!	!	!
=16	=16	=16	=16	=16	=16	=16	=16	=16	=16	=16	=16	=16	=16	=16	=16	=16	=16	=16	=16	=16	=16	=16	=16	=16	=16
.	.	.	.	.	.	.	.	.	.	.	.	.	.	.	.	.	.	.	.	.	.	.	.	8qqee/yy	8qqee/
4F\	.	2d\	1ryy	(8f/L	(8ee\L	.	2C\	o-	.	2G/	o-	.	2f\	o-	.	.	2dd\	o-	.	1ryy	1ryy	1ryy	2f/	(2dd\yy	2dd\
.	.	.	.	8g/	8dd\	.	.	.	.	.	.	.	.	.	.	.	.	.	.	.	.	.	.	.	.
4GG/	.	.	.	8f/	8dd\)	.	.	.	.	.	.	.	.	.	.	.	.	.	.	.	.	.	.	.	.
!	!	!	!	!	!LO:SIC:v:s=8bn\J	!	!	!	!	!	!	!	!	!	!	!	!	!	!	!	!	!	!	!	!
.	.	.	.	8g/J)	8b-\J	.	.	.	.	.	.	.	.	.	.	.	.	.	.	.	.	.	.	.	.
4E\	.	2c\	.	(8e/L	(8dd\L	.	4F\	-ra	.	4G/	-ra	.	4e\	-ra	.	.	4cc\	-ra	.	.	.	.	4e/	4cc\)yy	4cc\
.	.	.	.	8g/	8cc\)	.	.	.	.	.	.	.	.	.	.	.	.	.	.	.	.	.	.	.	.
4GG/	.	.	.	8e/	8cc\|	.	4r	.	.	4r	.	.	4r	.	.	.	4r	.	.	.	.	.	4r	4ryy	4r
.	.	.	.	8g/J)	8cc\J|	.	.	.	.	.	.	.	.	.	.	.	.	.	.	.	.	.	.	.	.
!LO:LB:g=original	!	!	!	!	!	!	!	!	!	!LO:LB:g=original	!	!	!	!	!	!	!LO:LB:g=original	!	!	!	!	!	!	!	!
=17	=17	=17	=17	=17	=17	=17	=17	=17	=17	=17	=17	=17	=17	=17	=17	=17	=17	=17	=17	=17	=17	=17	=17	=17	=17
.	.	.	.	.	.	.	.	.	.	.	.	.	.	.	.	.	.	.	.	.	.	.	.	8qqgg/yy	8qqgg/
*	*	*	*	*	*	*	*	*ij	*	*	*	*	*	*	*	*	*	*	*	*	*	*	*2\right	*	*
4D\	.	2Bn\	1ryy	(8d/L	(8gg\L	.	2c\	o-	.	2d\	o-	.	2g\	o-	.	.	2ff\	o-	.	1ryy	1ryy	1ryy	2dd\	2ff\yy	2ff\
.	.	.	.	8g/	8ff\	.	.	.	.	.	.	.	.	.	.	.	.	.	.	.	.	.	.	.	.
4GG/	.	.	.	8d/	(8ff\)	.	.	.	.	.	.	.	.	.	.	.	.	.	.	.	.	.	.	.	.
.	.	.	.	8g/J)	(8dd\J)	.	.	.	.	.	.	.	.	.	.	.	.	.	.	.	.	.	.	.	.
.	.	.	.	.	.	.	.	.	.	.	.	.	.	.	.	.	.	.	.	.	.	.	.	8qqdd#X/yy	8qqdd#X/
4C\	.	4c\	.	(8c/L	8dd#X\L)	.	4F\	-ra	.	4c\	-ra	.	4g\	-ra	.	.	4ee\	-ra	.	.	.	.	4cc\	4ee\yy	4ee\
.	.	.	.	8g/	8ee\|	.	.	.	.	.	.	.	.	.	.	.	.	.	.	.	.	.	.	.	.
4E\	.	4e\	.	8c/	8ee\|	.	4r	.	.	4r	.	.	4r	.	.	.	4r	.	.	.	.	.	4r	4ryy	4r
.	.	.	.	8g/J)	8ee\J|	.	.	.	.	.	.	.	.	.	.	.	.	.	.	.	.	.	.	.	.
=18	=18	=18	=18	=18	=18	=18	=18	=18	=18	=18	=18	=18	=18	=18	=18	=18	=18	=18	=18	=18	=18	=18	=18	=18	=18
.	.	.	.	.	.	.	.	.	.	.	.	.	.	.	.	.	.	.	.	.	.	.	.	8qqee/yy	8qqee/
*	*	*	*	*	*	*	*	*	*	*	*ij	*	*	*	*	*	*	*ij	*	*	*	*	*	*	*
4F\	.	2d\	1ryy	(8f/L	8ee\	.	2C\	o-	.	2G/	o-	.	2f\	o-	.	.	2dd\	o-	.	1ryy	1ryy	1ryy	2f/	(2ddn\yy	(2ddn\
.	.	.	.	8G/)	4ddn\	.	.	.	.	.	.	.	.	.	.	.	.	.	.	.	.	.	.	.	.
4GG/	.	.	.	8f/	.	.	.	.	.	.	.	.	.	.	.	.	.	.	.	.	.	.	.	.	.
!	!	!	!	!	!LO:SIC:v:s=8bn\	!	!	!	!	!	!	!	!	!	!	!	!	!	!	!	!	!	!	!	!
.	.	.	.	8G/J	8b-\	.	.	.	.	.	.	.	.	.	.	.	.	.	.	.	.	.	.	.	.
4C/	.	2c\	.	8e/L	(16dd\LL	.	4F\	-ra	.	4G/	-ra	.	4e\	-ra	.	.	4cc\	-ra	.	.	.	.	4e/	4cc\)yy	4cc\)
*	*	*	*	*	*	*	*	*	*	*	*	*	*	*	*	*	*	*Xij	*	*	*	*	*	*	*
.	.	.	.	.	16cc\	.	.	.	.	.	.	.	.	.	.	.	.	.	.	.	.	.	.	.	.
!	!	!	!	!	!LO:SIC:v:s=16b\	!	!	!	!	!	!	!	!	!	!	!	!	!	!	!	!	!	!	!	!
.	.	.	.	8G/	16b-\	.	.	.	.	.	.	.	.	.	.	.	.	.	.	.	.	.	.	.	.
.	.	.	.	.	16cc\JJ)	.	.	.	.	.	.	.	.	.	.	.	.	.	.	.	.	.	.	.	.
4GG/	.	.	.	8e/	8cc\L|	.	4r	.	.	4r	.	.	4r	.	.	.	4r	.	.	.	.	.	4r	4ryy	4r
.	.	.	.	8G/J	8cc\J|	.	.	.	.	.	.	.	.	.	.	.	.	.	.	.	.	.	.	.	.
!	!	!	!	!	!	!	!	!	!	!	!	!	!	!	!	!	!	!	!	!	!	!	!	!	!LO:LB:g=original
=19	=19	=19	=19	=19	=19	=19	=19	=19	=19	=19	=19	=19	=19	=19	=19	=19	=19	=19	=19	=19	=19	=19	=19	=19	=19
.	.	.	.	.	.	.	.	.	.	.	.	.	.	.	.	.	.	.	.	.	.	.	.	8qqgg/yy	8qqgg/
!	!	!LO:SIC:v:s=2Bn\	!	!	!	!	!	!	!	!	!	!	!	!	!	!	!	!	!	!	!	!	!	!	!
4F\	.	2B-\	1ryy	8d/L	8gg\	.	2c\	o-	.	(2d\	o-	.	[2g\	o-	.	.	(2ff\	O:-	.	1ryy	1ryy	1ryy	2dd\	2ff\yy	2ff\
.	.	.	.	8G/	4ff\	.	.	.	.	.	.	.	.	.	.	.	.	.	.	.	.	.	.	.	.
4GG/	.	.	.	8d/	.	.	.	.	.	.	.	.	.	.	.	.	.	.	.	.	.	.	.	.	.
.	.	.	.	8G/J	(8dd\	.	.	.	.	.	.	.	.	.	.	.	.	.	.	.	.	.	.	.	.
.	.	.	.	.	.	.	.	.	.	.	.	.	.	.	.	.	.	.	.	.	.	.	.	8qqdd#X/yy	8qqdd#X/
4E\	.	4c\	.	8c/L	8dd#X\L)	.	4F\	-ra	.	4c\)	-ra	.	4g\]	-ra	.	.	4ee\)	.	.	.	.	.	4cc\	4ee\yy	4ee\
*	*	*	*	*	*	*	*	*Xij	*	*	*Xij	*	*	*	*	*	*	*	*	*	*	*	*	*	*
.	.	.	.	8G/	8ee\|	.	.	.	.	.	.	.	.	.	.	.	.	.	.	.	.	.	.	.	.
4GG/	.	4e\	.	8c/	8ee\|	.	4r	.	.	4r	.	.	4r	.	.	.	4r	.	.	.	.	.	4r	4ryy	4r
.	.	.	.	8G/J	8ee\J|	.	.	.	.	.	.	.	.	.	.	.	.	.	.	.	.	.	.	.	.
=20	=20	=20	=20	=20	=20	=20	=20	=20	=20	=20	=20	=20	=20	=20	=20	=20	=20	=20	=20	=20	=20	=20	=20	=20	=20
4F\	.	4a\	1ryy	(8f/L	(8ddn\L	.	4F\	o-	.	4A\	o-	.	4a\	ra	.	.	4dd\	-ra	.	1ryy	1ryy	1ryy	4a/	4ddn\yy	4ddn\
!	!	!	!	!	!	!LO:DY:t=p&colon;	!	!	!	!	!	!	!	!	!	!	!	!	!	!	!	!	!	!	!
.	.	.	.	8e/)	8cc#X\|	p	.	.	.	.	.	.	.	.	.	.	.	.	.	.	.	.	.	.	.
4r	.	4r	.	8f/|	8dd\|	.	4r	.	.	4r	.	.	4r	.	.	.	4r	.	.	.	.	.	4r	4ryy	4r
.	.	.	.	8c#X/J|	8ee\J|	.	.	.	.	.	.	.	.	.	.	.	.	.	.	.	.	.	.	.	.
4r	.	4r	.	8d/L	8ff\L|	.	4r	.	.	4r	.	.	4r	.	.	.	4r	.	.	.	.	.	4r	4ryy	4r
.	.	.	.	8e/	8gg\|	.	.	.	.	.	.	.	.	.	.	.	.	.	.	.	.	.	.	.	.
4F\	.	8a\L	.	8f/	8aa\|	.	4F\	.	.	4c\	.	.	4a\	o-	.	.	4ff\	o-	.	.	.	.	8ff\L	8aa\Lyy	8aa\L
!	!	!	!	!	!	!LO:DY:t=for	!	!	!	!	!	!	!	!	!	!	!	!	!	!	!	!	!	!	!
.	.	8f\J	.	8d/J	8bb-\J)|	f	.	.	.	.	.	.	.	.	.	.	.	.	.	.	.	.	8dd\J	8bb-\Jyy	8bb-\J
!	!	!	!	!LO:LB:g=original	!LO:LB:g=original	!	!	!	!	!	!	!	!	!	!	!	!	!	!	!	!	!	!	!LO:LB:g=original	!
=21	=21	=21	=21	=21	=21	=21	=21	=21	=21	=21	=21	=21	=21	=21	=21	=21	=21	=21	=21	=21	=21	=21	=21	=21	=21
4E\	.	4c\	1ryy	4e/	4cccn\	.	4E\	-ra	.	4c\	-ra	.	4g\	-ra	.	.	4ee\	-ra	.	1ryy	1ryy	1ryy	4ee\	4ccc\yy	4ccc\
.	.	.	.	.	.	.	.	.	.	.	.	.	.	.	.	.	8qgg/	.	.	.	.	.	.	.	.
4F\	.	4a\	.	8f/L	16bbn\LL	.	4F\	pro	.	4d\	pro	.	4a\	pro	.	.	8ff\L	pro	.	.	.	.	8ff\L	(16bb-\LLyy	16bb-\LL
.	.	.	.	.	16aa\	.	.	.	.	.	.	.	.	.	.	.	.	.	.	.	.	.	.	16aa\yy	16aa\
.	.	.	.	16e/L	16gg\	.	.	.	.	.	.	.	.	.	.	.	16ee\L	.	.	.	.	.	16ee\L	16gg\yy	16gg\
.	.	.	.	16d/JJ	16ff\JJ	.	.	.	.	.	.	.	.	.	.	.	16dd\JJ	.	.	.	.	.	16dd\JJ	16ff\JJ)yy	16ff\JJ
4G\	4	4g\	.	4c/	4ee\	.	4G\	no-	.	4c\	no-	.	2g\	no-	.	.	4cc\	no-	.	.	.	.	4cc\	4ee\yy	4ee\
4GG/	n	4g\	.	4Bn/	4dd\	.	4GG/	.	.	4Bn\	.	.	.	.	.	.	4bn\	.	.	.	.	.	4bn\	4dd\yy	4dd\
=22	=22	=22	=22	=22	=22	=22	=22	=22	=22	=22	=22	=22	=22	=22	=22	=22	=22	=22	=22	=22	=22	=22	=22	=22	=22
!	!	!	!	!	!LO:TX:t=P:problem:mixed beam	!	!	!	!	!	!	!	!	!	!	!	!	!	!	!	!	!	!	!	!
4C/	.	4g\	1ryy	4c/	8cc\L|	.	4C/	-bis.	.	4c\	-bis	.	4g\	-bis	.	.	4cc\	-bis	.	1ryy	1ryy	1ryy	4cc\	4cc\yy	4cc\
.	.	.	.	.	8c/|>	.	.	.	.	.	.	.	.	.	.	.	.	.	.	.	.	.	.	.	.
4r	.	4r	.	8e/L|	8e/|>	.	4r	.	.	4r	.	.	4r	.	.	.	4r	.	.	.	.	.	4r	4ryy	4r
.	.	.	.	8g/J|	8g/J|>	.	.	.	.	.	.	.	.	.	.	.	.	.	.	.	.	.	.	.	.
2r	.	8c\L|	.	8cc\L|	8cc\L|	.	2r	.	.	2r	.	.	2r	.	.	.	2r	.	.	.	.	.	2r	2ryy	2r
.	.	8e\|	.	8ee\|	8ee\|	.	.	.	.	.	.	.	.	.	.	.	.	.	.	.	.	.	.	.	.
.	.	8g\|	.	8gg\|	8gg\|	.	.	.	.	.	.	.	.	.	.	.	.	.	.	.	.	.	.	.	.
.	.	8e\J|	.	8ee\J|	8ee\J|	.	.	.	.	.	.	.	.	.	.	.	.	.	.	.	.	.	.	.	.
!	!	!	!	!	!	!	!LO:LB:g=original	!	!	!	!	!	!LO:PB:g=original	!	!	!	!	!	!	!	!	!	!LO:LB:g=original	!	!
=23	=23	=23	=23	=23	=23	=23	=23	=23	=23	=23	=23	=23	=23	=23	=23	=23	=23	=23	=23	=23	=23	=23	=23	=23	=23
*	*	*	*	*	*	*	*	*	*	*	*	*	*	*	*	*ij	*	*	*	*	*	*	*	*	*
4c\	.	4g\|	1ryy	(8b-X\L	(8cc\L	.	2c\	Au-	Au-	2c\	au-	.	2g\	Au-	.	Au-	2ee\	Au-	Au-	1ryy	1ryy	1ryy	4b-X/	2ee\yy	2ee\
.	.	.	.	8cc\)	8gg\	.	.	.	.	.	.	.	.	.	.	.	.	.	.	.	.	.	.	.	.
4B-X\	.	4g\|	.	(8b-\	8bb-X\	.	.	.	.	.	.	.	.	.	.	.	.	.	.	.	.	.	(4g/	.	.
.	.	.	.	8cc\J)	8ee\J)	.	.	.	.	.	.	.	.	.	.	.	.	.	.	.	.	.	.	.	.
4A\	.	4f\|	.	(8a\L	(8ff\L	.	8A\	-xi-	-xi-	8c\	-xi-	.	8a\	-xi-	.	-xi-	8ff\	-xi-	-xi-	.	.	.	4a/	2ff\yy	2ff\
.	.	.	.	8cc\	8cc\J	.	8A\	-li-	-li-	8c\	-li-	.	8a\	-li-	.	-li-	8ff\	-li-	-li-	.	.	.	.	.	.
4F\	.	4f\|	.	(8a\)	4cc\)	.	4A\	-um	-um	4c\	-um	.	4a\	-um	.	-um	4ff\	-um	-um	.	.	.	4ff\)	.	.
*	*	*	*	*	*	*	*	*	*	*	*	*	*	*	*	*Xij	*	*	*	*	*	*	*	*	*
.	.	.	.	8cc\J)	.	.	.	.	.	.	.	.	.	.	.	.	.	.	.	.	.	.	.	.	.
!	!	!	!	!	!	!	!	!	!	!	!	!	!	!	!	!	!LO:LB:g=original	!	!	!	!	!	!	!	!
=24	=24	=24	=24	=24	=24	=24	=24	=24	=24	=24	=24	=24	=24	=24	=24	=24	=24	=24	=24	=24	=24	=24	=24	=24	=24
4E\	.	4e\|	1ryy	(8g\L	8r	.	4E\	Chri-	no-	4c\	Chri-	.	4b-X\	Chri-	.	no-	4gg\	Chri-	no-	1ryy	1ryy	1ryy	2gg\	2bb-X\yy	2bb-X\
.	.	.	.	8cc\	8ccc\L|	.	.	.	.	.	.	.	.	.	.	.	.	.	.	.	.	.	.	.	.
4C\	.	4e\|	.	8g\	8ccc\|	.	8C\	-sti-	.	8c\	-sti-	.	8b-\	-sti-	.	.	8gg\	-sti-	.	.	.	.	.	.	.
.	.	.	.	8cc\J)	8ccc\J|	.	8E\	-a-	.	8c\	-a-	.	8b-\	-a-	.	.	8gg\	-a-	.	.	.	.	.	.	.
!	!	!	!	!	!LO:TUP:a:problem:klamra łukowa, łuczek zamiast numeru	!	!	!	!	!LO:LB:g=original	!	!	!	!	!	!	!	!	!	!	!	!	!	!	!
4F\	.	4f\|	.	(8a\L	12aa\L	.	4F\	-no-	.	4c\	-no-	.	4a\	-no-	.	-strum	4ff\	-no-	.	.	.	.	4ff\	2aa\yy	2aa\
.	.	.	.	.	12bb-\)	.	.	.	.	.	.	.	.	.	.	.	.	.	.	.	.	.	.	.	.
.	.	.	.	8cc\	.	.	.	.	.	.	.	.	.	.	.	.	.	.	.	.	.	.	.	.	.
.	.	.	.	.	12ccc\J)	.	.	.	.	.	.	.	.	.	.	.	.	.	.	.	.	.	.	.	.
4FF/	.	4f\|	.	8a\	4ccc\	.	4A\	-rum	strum	4c\	-rum	.	4a\	-rum	.	.	4ff\	-rum	-strum	.	.	.	4a/	.	.
.	.	.	.	8cc\J)	.	.	.	.	.	.	.	.	.	.	.	.	.	.	.	.	.	.	.	.	.
=25	=25	=25	=25	=25	=25	=25	=25	=25	=25	=25	=25	=25	=25	=25	=25	=25	=25	=25	=25	=25	=25	=25	=25	=25	=25
*	*	*	*	*	*	*	*	*	*ij	*	*	*	*	*	*	*	*	*	*	*	*	*	*	*	*
4C/	.	4g\|	1ryy	(8b-\L	8r	.	4c\	Au-	Au-	2c\	Au-	Au-	2g\	Au-	.	.	2ee\	Au-	Au-	1ryy	1ryy	1ryy	(4b-X/	2ee\yy	2ee\
.	.	.	.	8cc\	(8gg\L	.	.	.	.	.	.	.	.	.	.	.	.	.	.	.	.	.	.	.	.
4BB-/	.	4g\|	.	8b-\	8bb-\)	.	4B-X\	.	.	.	.	.	.	.	.	.	.	.	.	.	.	.	4g/	.	.
.	.	.	.	8cc\J)	8ee\J|	.	.	.	.	.	.	.	.	.	.	.	.	.	.	.	.	.	.	.	.
4AA/	.	4f\|	.	(8a\L	(8ff\L	.	8A\	-xi-	-xi-	8c\	-xi-	-xi-	8a\	-xi-	.	.	8ff\	-xi-	-xi-	.	.	.	4a/	2ff\yy	2ff\
.	.	.	.	8cc\	8cc\J)	.	8F\	-li-	-li-	8c\	-li-	-li-	8a\	-li-	.	.	8ff\	-li-	-li-	.	.	.	.	.	.
4FF/	.	4f\|	.	8a\	4cc\|	.	4F\	-um	-um	4c\	-um	-um	4a\	-um	.	.	4ff\	-um	-um	.	.	.	4ff\)	.	.
*	*	*	*	*	*	*	*	*	*Xij	*	*	*	*	*	*	*	*	*	*	*	*	*	*	*	*
.	.	.	.	8cc\J)	.	.	.	.	.	.	.	.	.	.	.	.	.	.	.	.	.	.	.	.	.
!LO:LB:g=original	!	!LO:LB:g=original	!	!	!	!	!	!	!	!	!	!	!	!	!	!	!	!	!	!	!	!	!	!	!
=26	=26	=26	=26	=26	=26	=26	=26	=26	=26	=26	=26	=26	=26	=26	=26	=26	=26	=26	=26	=26	=26	=26	=26	=26	=26
4EE/	.	4e\|	1ryy	(8g\L	8r	.	4E\	Chri-	no-	4c\	Chri-	no-	4b-\	Chri-	.	no-	4gg\	Chri-	no-	1ryy	1ryy	1ryy	4gg\	2bb-\yy	2bb-\
.	.	.	.	8cc\	8ccc\L|	.	.	.	.	.	.	.	.	.	.	.	.	.	.	.	.	.	.	.	.
4C/	.	4e\|	.	8g\	8ccc\|	.	8C\	-sti-	.	8c\	-sti-	.	8b-\	-sti-	.	.	8gg\	-sti-	.	.	.	.	4ee\	.	.
.	.	.	.	8cc\J)	(16ccc\L	.	8E\	-a-	.	8c\	-a-	.	8b-\	-a-	.	.	8gg\	-a-	.	.	.	.	.	.	.
.	.	.	.	.	16bb-\JJ)	.	.	.	.	.	.	.	.	.	.	.	.	.	.	.	.	.	.	.	.
!	!	!	!	!	!LO:TUP:a:problem:klamra łukowa, łuczek zamiast numeru	!	!	!	!	!	!	!	!	!	!	!	!	!	!	!	!	!	!	!	!
4F\	.	4f\|	.	(8a\L	12aa\L	.	4F\	-no-	.	4c\	-no-	.	4a\	-no-	.	strum	4ff\	-no-	.	.	.	.	4ff\	2aa\yy	2aa\
.	.	.	.	.	12bb-\	.	.	.	.	.	.	.	.	.	.	.	.	.	.	.	.	.	.	.	.
.	.	.	.	8cc\	.	.	.	.	.	.	.	.	.	.	.	.	.	.	.	.	.	.	.	.	.
.	.	.	.	.	12ccc\J	.	.	.	.	.	.	.	.	.	.	.	.	.	.	.	.	.	.	.	.
4FF/	.	4f\|	.	8a\	4ccc\	.	4A\	-rum	-strum.	4c\	-rum	-strum.	4a\	-rum	.	.	4ff\	-ru(m)	-strum	.	.	.	4a/	.	.
.	.	.	.	8cc\J)	.	.	.	.	.	.	.	.	.	.	.	.	.	.	.	.	.	.	.	.	.
!	!	!	!	!	!	!	!	!	!	!	!	!	!	!	!	!	!	!	!	!	!	!	!	!	!LO:LB:g=original
=27	=27	=27	=27	=27	=27	=27	=27	=27	=27	=27	=27	=27	=27	=27	=27	=27	=27	=27	=27	=27	=27	=27	=27	=27	=27
4c\	.	4g\|	1ryy	(8b-\L	8r	.	2c\	o-	.	2c\	o-	.	2g\	o-	.	.	2ee\	o-	.	1ryy	1ryy	1ryy	4b-\	4ee\|yy	4ee\
.	.	.	.	8cc\	(8gg\L	.	.	.	.	.	.	.	.	.	.	.	.	.	.	.	.	.	.	.	.
4B-\	.	4g\|	.	8b-\	8bb-\)	.	.	.	.	.	.	.	.	.	.	.	.	.	.	.	.	.	4ee\	4gg\|yy	4gg\
.	.	.	.	8cc\J)	8ee\J|	.	.	.	.	.	.	.	.	.	.	.	.	.	.	.	.	.	.	.	.
!	!	!	!	!	!LO:LB:g=original	!	!	!	!	!	!	!	!	!	!	!	!	!	!	!	!	!	!	!	!
4A\	.	4f\|	.	8r	8r	.	4F\	-ra	.	4c\	-ra	.	4a\	-ra	.	.	4ff\	-ra	.	.	.	.	4ff\	4aa\|yy	4aa\
.	.	.	.	(8ff\L	(8aa\L	.	.	.	.	.	.	.	.	.	.	.	.	.	.	.	.	.	.	.	.
4r	.	4r	.	8ee\)	8gg\)	.	4r	.	.	4r	.	.	4r	.	.	.	4r	.	.	.	.	.	4r	4ryy	4r
.	.	.	.	8dd\J|	8ff\J|	.	.	.	.	.	.	.	.	.	.	.	.	.	.	.	.	.	.	.	.
!	!	!	!	!LO:LB:g=original	!	!	!LO:LB:g=original	!	!	!	!	!	!	!	!	!	!	!	!	!	!	!	!	!	!
=28	=28	=28	=28	=28	=28	=28	=28	=28	=28	=28	=28	=28	=28	=28	=28	=28	=28	=28	=28	=28	=28	=28	=28	=28	=28
4B-\	.	4f\	1ryy	8r	8r	.	1r	.	.	1r	.	.	1r	.	.	.	1r	.	.	1ryy	1ryy	1ryy	4dd\|	4ff\|yy	4ff\
.	.	.	.	(8dd\L	(8ff\L	.	.	.	.	.	.	.	.	.	.	.	.	.	.	.	.	.	.	.	.
4r	.	4r	.	8cc\	8ee\)	.	.	.	.	.	.	.	.	.	.	.	.	.	.	.	.	.	4r	4ryy	4r
.	.	.	.	8b-\J)|	8dd\J|	.	.	.	.	.	.	.	.	.	.	.	.	.	.	.	.	.	.	.	.
4BB-/	.	4f\	.	8r	8r	.	.	.	.	.	.	.	.	.	.	.	.	.	.	.	.	.	4b-\|	4dd\|yy	4dd\
.	.	.	.	(8b-/L	(8dd\L	.	.	.	.	.	.	.	.	.	.	.	.	.	.	.	.	.	.	.	.
4r	.	4r	.	8a/)	8cc\)	.	.	.	.	.	.	.	.	.	.	.	.	.	.	.	.	.	4r	4ryy	4r
.	.	.	.	8g/J|	8b-\J|	.	.	.	.	.	.	.	.	.	.	.	.	.	.	.	.	.	.	.	.
=29	=29	=29	=29	=29	=29	=29	=29	=29	=29	=29	=29	=29	=29	=29	=29	=29	=29	=29	=29	=29	=29	=29	=29	=29	=29
4AA/	.	4c\	1ryy	8a/L	(8cc/L	.	4r	.	.	4r	.	.	4r	.	.	.	4r	.	.	1ryy	1ryy	1ryy	4a/	4cc\yy	4cc\
.	.	.	.	8f/	8a/)	.	.	.	.	.	.	.	.	.	.	.	.	.	.	.	.	.	.	.	.
4BB-/	.	4g\	.	8d/	(8b-/	.	4BB-/	pro	.	4d\	pro	.	4g\	pro	.	.	4b-\	pro	.	.	.	.	4g/	4b-\yy	4b-\
.	.	.	.	8B-/J	8g/J)	.	.	.	.	.	.	.	.	.	.	.	.	.	.	.	.	.	.	.	.
4C/	.	4a\	.	4A/	4f/	.	2C/	no-	.	2c\	no-	.	(4f\	no-	.	.	4a\	no-	.	.	.	.	4f/	4a\yy	4a\
4CC/	.	4c\	.	4G/	4e/	.	.	.	.	.	.	.	4e\)	.	.	.	4g\	.	.	.	.	.	4e/	4g/yy	4g/
=30	=30	=30	=30	=30	=30	=30	=30	=30	=30	=30	=30	=30	=30	=30	=30	=30	=30	=30	=30	=30	=30	=30	=30	=30	=30
8A\L	.	4F/	1ryy	4a/	(16cc\LL	.	4FF/	-bis	.	4c\	-bis	.	4f\	-bis	.	.	4f,</	-bis	.	1ryy	1ryy	1ryy	4a/	8cc\Lyy	8cc\L
.	.	.	.	.	16dd\	.	.	.	.	.	.	.	.	.	.	.	.	.	.	.	.	.	.	.	.
8F\	.	.	.	.	16ee\	.	.	.	.	.	.	.	.	.	.	.	.	.	.	.	.	.	.	8ff\yy	8ff\
.	.	.	.	.	16ff\JJ)	.	.	.	.	.	.	.	.	.	.	.	.	.	.	.	.	.	.	.	.
!	!	!LO:TX:t=P:problem:mixed beam	!	!	!	!	!	!	!	!	!	!	!	!	!	!	!	!	!	!	!	!	!	!	!
8B-\	.	8G/L	.	16cc/LL	(16ee\LL	.	4B-\	pro	.	4d\	pro	.	4b-\	pro	.	.	(4gg\	pro	.	.	.	.	8b-\L	8dd\yy	8dd\
.	.	.	.	16b-/	16dd\	.	.	.	.	.	.	.	.	.	.	.	.	.	.	.	.	.	.	.	.
8G\J	.	8b-\J	.	16a/	16cc\	.	.	.	.	.	.	.	.	.	.	.	.	.	.	.	.	.	8gg\J	8bb-\Jyy	8bb-\J
.	.	.	.	16g/JJ	16b-\JJ)	.	.	.	.	.	.	.	.	.	.	.	.	.	.	.	.	.	.	.	.
4c\	.	4cc\	.	4f/	4a/	.	4c\	no-	.	2c\	no-	.	(4a\	no-	.	.	4ff\	no-	.	.	.	.	4ff\	4aa\yy	4aa\
4C/	.	4cc\	.	4e/	4g/	.	4C/	.	.	.	.	.	4g\)	.	.	.	4ee\)	.	.	.	.	.	4ee\	4gg\yy	4gg\
!	!	!	!	!	!	!	!	!	!	!	!	!	!	!	!	!	!LO:LB:g=original	!	!	!	!	!	!	!	!
=31	=31	=31	=31	=31	=31	=31	=31	=31	=31	=31	=31	=31	=31	=31	=31	=31	=31	=31	=31	=31	=31	=31	=31	=31	=31
2F\	.	4cc\	1ryy	4f/	(4f/	.	4F\	-bis.	.	4c\	-bis.	.	4a\	-bis.	.	.	4ff\	-bis.	.	1ryy	1ryy	1ryy	4ff\	4ff\yy	4ff\
.	.	4r	.	(4a/	4ff\	.	4r	.	.	4r	.	.	4r	.	.	.	4r	.	.	.	.	.	4r	4ryy	4r
2r	.	2r	.	4g/	4ee\	.	2r	.	.	2r	.	.	2r	.	.	.	2r	.	.	.	.	.	2r	2ryy	2r
.	.	.	.	4f/	4dd\	.	.	.	.	.	.	.	.	.	.	.	.	.	.	.	.	.	.	.	.
=32	=32	=32	=32	=32	=32	=32	=32	=32	=32	=32	=32	=32	=32	=32	=32	=32	=32	=32	=32	=32	=32	=32	=32	=32	=32
!	!	!	!	!	!	!	!	!	!	!	!	!	!LO:TX:a:t=3	!	!	!	!	!	!	!	!	!	!	!	!
4AA/	.	4A/	1ryy	4e/)	4cc#X\)	.	0r	.	.	0r	.	.	0r	.	.	.	0r	.	.	1ryy	1ryy	1ryy	0r	0ryy	0r
8r	.	8r	.	8r	8r	.	.	.	.	.	.	.	.	.	.	.	.	.	.	.	.	.	.	.	.
8BB-X/	.	8G#X/	.	(8f/	(8dd\	.	.	.	.	.	.	.	.	.	.	.	.	.	.	.	.	.	.	.	.
4AA/	.	4A/	.	4e/)	4cc#\)	.	.	.	.	.	.	.	.	.	.	.	.	.	.	.	.	.	.	.	.
8r	.	8r	.	8r	8r	.	.	.	.	.	.	.	.	.	.	.	.	.	.	.	.	.	.	.	.
8BB-/	.	8G#/	.	8f/	(8dd\	.	.	.	.	.	.	.	.	.	.	.	.	.	.	.	.	.	.	.	.
=33	=33	=33	=33	=33	=33	=33	=33	=33	=33	=33	=33	=33	=33	=33	=33	=33	=33	=33	=33	=33	=33	=33	=33	=33	=33
4AA/	.	4A/	1ryy	4e/	4cc#X\)	.	.	.	.	.	.	.	.	.	.	.	.	.	.	1ryy	1ryy	1ryy	.	.	.
4A\	.	4A/	.	4a/	4a/|>	.	.	.	.	.	.	.	.	.	.	.	.	.	.	.	.	.	.	.	.
4AA/	.	4A/	.	4a/	4a/|>	.	.	.	.	.	.	.	.	.	.	.	.	.	.	.	.	.	.	.	.
4AA/	.	4A/	.	4a/	4a/|>	.	.	.	.	.	.	.	.	.	.	.	.	.	.	.	.	.	.	.	.
=34	=34	=34	=34	=34	=34	=34	=34	=34	=34	=34	=34	=34	=34	=34	=34	=34	=34	=34	=34	=34	=34	=34	=34	=34	=34
2AA/	.	2A/	1ryy	2a/	2a;/	.	1r	.	.	1r	.	.	1r	.	.	.	1r	.	.	1ryy	1ryy	1ryy	1r	1ryy	1r
2r	.	2r	.	2r	2r	.	.	.	.	.	.	.	.	.	.	.	.	.	.	.	.	.	.	.	.
==	==	==	==	==	==	==	==	==	==	==	==	==	==	==	==	==	==	==	==	==	==	==	==	==	==
*-	*-	*-	*-	*-	*-	*-	*-	*-	*-	*-	*-	*-	*-	*-	*-	*-	*-	*-	*-	*-	*-	*-	*-	*-	*-
!!!system-decoration: [(g1)][(g2)]<s6>[(g3)][(g4)]<s15>
!!!RDF**kern: > = above
!!!RDF**kern: < = below
!!!RDF**kern: | = vertical stroke
!!!ENC: Berenika Jozajtis
!!!END: 2020-10-17
!!!ENC: Andrzej Kubiczek
!!!END: 2022-04-12
